!!!COM: Palestrina, Giovanni Perluigi da
!!!OPR: Missa De beata virgine (1570)
!!!OMD: Sanctus
!!!OTL: First Section
**kern	**kern	**kern	**kern	**kern	**kern
*Ibass	*Itenor	*Itenor	*Icalto	*Icant	*Icant
!Bassus	!Tenor 2	!Tenor 1	!Altus	!Cantus 2	!Cantus 1
*clefF4	*clefGv2	*clefGv2	*clefG2	*clefG2	*clefG2
*k[b-]	*k[b-]	*k[b-]	*k[b-]	*k[b-]	*k[b-]
*?:X	*?:X	*?:X	*?:X	*?:X	*?:X
*M4/2	*M4/2	*M4/2	*M4/2	*M4/2	*M4/2
=1	=1	=1	=1	=1	=1
0r	0r	0r	0g	0r	0r
=2	=2	=2	=2	=2	=2
0r	0r	0c	0e	0r	0r
=3	=3	=3	=3	=3	=3
0r	0r	0A	2.c	0cc	0r
.	.	.	4d	.	.
.	.	.	2e	.	.
.	.	.	2c	.	.
=4	=4	=4	=4	=4	=4
0r	0r	2.F	2.f	0a	[0cc
.	.	4G	8e	.	.
.	.	.	8d	.	.
.	.	2A	2c	.	.
.	.	2F	[2f	.	.
=5	=5	=5	=5	=5	=5
0C	0r	1c	2f]	0g	0cc]
.	.	.	4e	.	.
.	.	.	4d	.	.
.	.	2r	1e	.	.
.	.	[2c	.	.	.
=6	=6	=6	=6	=6	=6
0F	[0c	4c]	0f	2.f	0a
.	.	4B-	.	.	.
.	.	4A	.	.	.
.	.	4G	.	4g	.
.	.	2F	.	2.a	.
.	.	[2f	.	.	.
.	.	.	.	4b-	.
=7	=7	=7	=7	=7	=7
0C	0c]	2f]	1r	[0cc	0g
.	.	4e	.	.	.
.	.	4d	.	.	.
.	.	1e	1g	.	.
=8	=8	=8	=8	=8	=8
2.F	0A	2.f	2.a	0cc]	1f
4G	.	8e	8g	.	.
.	.	8d	8f	.	.
4A	.	1c	2e	.	1r
4B-	.	.	.	.	.
[2c	.	.	2f#	.	.
=9	=9	=9	=9	=9	=9
2c]	0G	1.d	1g	0r	1r
4B-	.	.	.	.	.
4A	.	.	.	.	.
1B-	.	.	1r	.	1g
.	.	2e	.	.	.
=10	=10	=10	=10	=10	=10
4c	0F	[0f	2r	1r	2.a
4B-	.	.	.	.	.
4A	.	.	2f	.	.
4G	.	.	.	.	4b-
2F	.	.	2a	2r	2cc
2BB-	.	.	2b-	2f	2dd
=11	=11	=11	=11	=11	=11
0F	1r	0f]	2.cc	2.a	4cc
.	.	.	.	.	4b-
.	.	.	.	.	4a
.	.	.	4b-	4b-	4g
.	1F	.	4a	2cc	2f
.	.	.	4g	.	.
.	.	.	[2f	2dd	[2a
=12	=12	=12	=12	=12	=12
0r	0A	1r	2f]	2.cc	4a]
.	.	.	.	.	4g
.	.	.	4e	.	4a
.	.	.	4d	4b-	4b-
.	.	2r	1e	4a	1cc
.	.	.	.	4g	.
.	.	2c	.	2a	.
=13	=13	=13	=13	=13	=13
0r	[0c	2.e	2r	1g	1cc
.	.	.	2c	.	.
.	.	4f	.	.	.
.	.	2g	2.e	[1cc	1r
.	.	2a	.	.	.
.	.	.	4f	.	.
=14	=14	=14	=14	=14	=14
0r	0c]	2e	2g	1cc]	1r
.	.	1f	2a	.	.
.	.	.	1g	1cc	2r
.	.	2e	.	.	2cc
=15	=15	=15	=15	=15	=15
2r	0d	1f	0f	2r	2a
2BB-	.	.	.	2b-	2.dd
2.D	.	2r	.	2a	.
.	.	.	.	.	4cc
.	.	2F	.	[2f	2b-
4E	.	.	.	.	.
=16	=16	=16	=16	=16	=16
1F	[0c	2.A	2r	4f]	2a
.	.	.	.	4g	.
.	.	.	2c	2a	2ff
.	.	4B-	.	.	.
2C	.	2c	2e	2g	4ee
.	.	.	.	.	4dd
2F	.	4A	2f	[2a	4cc
.	.	4B-	.	.	4b-
=17	=17	=17	=17	=17	=17
2.A	0c]	4c	2e	4a]	4a
.	.	4d	.	4b-	4g
.	.	2.e	2c	2.cc	2a
4B-	.	.	.	.	.
2c	.	.	2.e	.	1g
.	.	4f	.	4dd	.
2C	.	[2g	.	[2ee	.
.	.	.	4f	.	.
=18	=18	=18	=18	=18	=18
2.E	0r	4g]	1g	4ee]	2r
.	.	4f	.	4dd	.
.	.	2e	.	1cc	2.gg
4F	.	.	.	.	.
1G	.	1d	2r	.	.
.	.	.	.	.	4ff
.	.	.	[2g	2b	2dd
=19	=19	=19	=19	=19	=19
2C	0c	2c	4g]	0cc	2ee
.	.	.	4e	.	.
1F	.	4A	2a	.	2.cc
.	.	4B-	.	.	.
.	.	4c	2f	.	.
.	.	4d	.	.	4b-
2E	.	2e	[2g	.	2g
=20	=20	=20	=20	=20	=20
1F	1A	[0c	4g]	2r	2.a
.	.	.	4f	.	.
.	.	.	1f	2.cc	.
.	.	.	.	.	4b-
1C	1G	.	.	.	1cc
.	.	.	.	4b-	.
.	.	.	2e	2g	.
=21	=21	=21	=21	=21	=21
1F	[0F	0c]	[0f	2.a	2r
.	.	.	.	.	1a
.	.	.	.	4b-	.
2r	.	.	.	1cc	.
[2A	.	.	.	.	2f
=22	=22	=22	=22	=22	=22
2A]	1F]	0r	0f]	2r	2.a
2F	.	.	.	1a	.
.	.	.	.	.	4b-
2A	1r	.	.	.	2cc
2B-	.	.	.	2f	2dd
=23	=23	=23	=23	=23	=23
1F	0r	0r	2r	2.a	2.cc
.	.	.	1a	.	.
.	.	.	.	4b-	4dd
1r	.	.	.	2cc	2ee
.	.	.	2f	[2dd	[2ff
=24	=24	=24	=24	=24	=24
0r	0r	0r	1a	4dd]	4ff]
.	.	.	.	4cc	4ee
.	.	.	.	1cc	2cc
.	.	.	1g	.	1dd
.	.	.	.	2b	.
=25	=25	=25	=25	=25	=25
0r	0r	2r	1c	2.cc	2cc
.	.	1A	.	.	2.a
.	.	.	.	4dd	.
.	.	.	2.cc	2ee	.
.	.	.	.	.	4g
.	.	2F	.	[2ff	4a
.	.	.	4b-	.	4b-
=26	=26	=26	=26	=26	=26
0r	0r	2.A	4a	2ff]	2.cc
.	.	.	4g	.	.
.	.	.	1a	1ee	.
.	.	4B-	.	.	4dd
.	.	2c	.	.	2ee
.	.	2d	2a	[2dd	2ff
=27	=27	=27	=27	=27	=27
1r	0A	1e	0a	2dd]	2ee
.	.	.	.	2cc#	1a
[1D	.	2.f	.	2dd	.
.	.	.	.	[2ff	2f
.	.	4e	.	.	.
=28	=28	=28	=28	=28	=28
2D]	0F	1.d	0r	2ff]	2a
2BB-	.	.	.	2dd	1b-
2.D	.	.	.	2ff	.
.	.	2d	.	[2ff	[2a
4E	.	.	.	.	.
=29	=29	=29	=29	=29	=29
4F	0A	1c	2r	2ff]	2a]
4G	.	.	.	.	.
4A	.	.	1e	4ee	1cc
4B-	.	.	.	4dd	.
1c	.	2r	.	1ee	.
.	.	[2e	2c	.	2a
=30	=30	=30	=30	=30	=30
1.C	[0c	2e]	2.e	1ee	1g
.	.	2c	.	.	.
.	.	.	4f	.	.
.	.	2e	2g	[1cc	1r
2F	.	2f	2a	.	.
=31	=31	=31	=31	=31	=31
2E	0c]	2g	2g	1cc]	0r
2F	.	2a	1f	.	.
1C	.	1g	.	1ee	.
.	.	.	2e	.	.
=32	=32	=32	=32	=32	=32
1r	[0d	1f	0f	0a	2r
.	.	.	.	.	1a
[1D	.	2r	.	.	.
.	.	[2f	.	.	2f
=33	=33	=33	=33	=33	=33
2D]	0d]	2f]	2r	1r	2a
2BB-	.	2d	2.f	.	2b-
1D	.	2.f	.	2r	2a
.	.	.	4e	.	.
.	.	.	2d	[2a	[2f
.	.	4g	.	.	.
=34	=34	=34	=34	=34	=34
0F	[0c	1a	2A	2a]	4f]
.	.	.	.	.	4g
.	.	.	2.a	2f	4a
.	.	.	.	.	4b-
.	.	1f	.	1a	2.cc
.	.	.	4g	.	.
.	.	.	2f	.	.
.	.	.	.	.	4dd
=35	=35	=35	=35	=35	=35
1C	1c]	0g	1e	2.cc	4ee
.	.	.	.	.	4ff
.	.	.	.	.	2gg
.	.	.	.	4dd	.
2.c	1r	.	2r	4ee	2.cc
.	.	.	.	4ff	.
.	.	.	[2e	2gg	.
4B-	.	.	.	.	4dd
=36	=36	=36	=36	=36	=36
1.A	0c	0r	2e]	2cc	1ee
.	.	.	2c	2.ee	.
.	.	.	2e	.	1a
.	.	.	.	4dd	.
2A	.	.	2f	[2cc	.
=37	=37	=37	=37	=37	=37
1G	0d	2r	0g	2cc]	2r
.	.	2d	.	4b-	1dd
.	.	.	.	4a	.
2r	.	2G	.	2b	.
2G	.	[2g	.	2b	2g
=38	=38	=38	=38	=38	=38
2C	0e	4g]	1g	1cc	2.gg
.	.	4f	.	.	.
2.c	.	4e	.	.	.
.	.	4d	.	.	4ff
.	.	[1c	2r	2r	4ee
4B-	.	.	.	.	4dd
4A	.	.	[2cc	[2a	4cc
4G	.	.	.	.	4b-
=39	=39	=39	=39	=39	=39
2.F	0f	1c]	4cc]	2a]	2a
.	.	.	4b-	.	.
.	.	.	2a	2f	2cc
4E	.	.	.	.	.
1D	.	2r	2f	2a	1dd
.	.	2F	2d	2b-	.
=40	=40	=40	=40	=40	=40
1C	0e	2G	2g	2.cc	1ee
.	.	2G	2e	.	.
.	.	.	.	4dd	.
1AA	.	2.c	1a	1ee	2r
.	.	.	.	.	[2a
.	.	4B-	.	.	.
=41	=41	=41	=41	=41	=41
1.D	0d	4A	2f	1ff	2a]
.	.	4G	.	.	.
.	.	2A	2.d	.	2f
.	.	2F	.	2.dd	2a
.	.	.	4e	.	.
2BB-	.	2B-	4f	.	2b-
.	.	.	4g	4ee	.
=42	=42	=42	=42	=42	=42
1F	0c	1A	2a	1ff	2cc
.	.	.	2f	.	4a
.	.	.	.	.	4b-
1C	.	1G	[1g	1ee	4cc
.	.	.	.	.	4dd
.	.	.	.	.	[2cc
=43	=43	=43	=43	=43	=43
0G	0d	2r	1g]	1dd	2cc]
.	.	2.g	.	.	4b-
.	.	.	.	.	4a
.	.	.	2r	2r	2b
.	.	4f	.	.	.
.	.	2d	[2g	[2gg	2b
=44	=44	=44	=44	=44	=44
1C	[0c	4e	2g]	4gg]	[0cc
.	.	4d	.	4ff	.
.	.	4c	2g	4ee	.
.	.	4B-	.	4dd	.
[1F	.	4A	[1a	4cc	.
.	.	4G	.	4b-	.
.	.	2F	.	4a	.
.	.	.	.	4g	.
=45	=45	=45	=45	=45	=45
2F]	0c]	2.c	2a]	2f	0cc]
2E	.	.	1g	2g	.
.	.	4B-	.	.	.
1F	.	2A	.	1a	.
.	.	2F	[2f	.	.
=46	=46	=46	=46	=46	=46
0C	[0c	0G	2f]	0g	[0cc
.	.	.	4e	.	.
.	.	.	4d	.	.
.	.	.	1e	.	.
=47	=47	=47	=47	=47	=47
0F	0c]	0F	0f	0a	0cc]
*-	*-	*-	*-	*-	*-
!!!CDT: 1525/^1526/-1594/2/2
!!!OCY: Italia
!!!AGN: Mass (Paraphrase)
!!!AST: renaissance, vocal
!!!ASW: Gregorian Mass
!!!PWK: Masses, Book 3
!!!RNB: Cadence finals: G,D,C,E,F
!!!YOR: Le Opere Complete, v. 6, p. 175
!!!YOO: Rome, Italy: Fratelli Scalera
!!!END: 1992//
!!!EED: John Miller
!!!YEC: Copyright 2000, John Miller
!!!YEN: United States of America
!!!YEM: Rights to all derivative electronic formats reserved.
!!!YEM: Refer to licensing agreement for further details.
!!!YEM: This file must be accompanied by the licensing agreement.
!!!YEM: A copy of the licensing agreement may be found at http://www.music-cog.ohio-state.edu/HumdrumDatabases/Palestrina/license.txt
!!!EMD: converted to Humdrum by Bret Aarden
